X: 400
T: A Tribute To Michael Tubridy
R: jig
M: 6/8
K: Dmajor
|:A2 d A2 G|FGE D2 F|A2 d A2 B|=cAF GFG|A2 d A2 G|
FGE Dde|fdd ged|1 =c2 d BAG:|2 =cdc B2 A||
|:d2 e f2 d|eAA AB=c|BGG GFG|Adf efg|a2 d agf|e2 A AB=c|
BGG GFG|Adc d2 A:|
|:A2 d dcd|fdd add|A2 =c cBc|
e=cc gcc|f2 d efg|afg g2 e|fdd eag|edc d2 d:|

